X: 71
T: THE LITTLE BLACK ROSE
B: O'Neill's 71
M: 3/4
L: 1/8
Z: Transcribed by John Chambers <jc@trillian.mit.edu>
N: "Tenderly"
N: 2nd Setting.
K:Cm
c>B \
|G2 G2 AGF|G2 G2 5G/A/B/c/d/|e2 d2 dcB|c4 cd|
|e2 g2 fd|cB GA Bc|Td2 c2 cd|c4||
||cd \
|e2 d2 gf|f2 d2 cB|G2 F2 GA|HB4 GB|
|c2 e2 dc|B3 c BG|F2 E2 CB,|C4||
